X:3
T:Barbara's Jig
C: Larry Unger
S:The Reckless Reel
M:6/8
L:1/8
K:Am
E|"Am"A2E "G"B2E|"F"cBA "G"BAG | "Am"EAA ABc|"G"BGE "Em"E2 E|
"Am"A2E "G"B2E|"F"cBA "G"BAG | "Am"A2c "G"BAG|"Em"EGB "Am"A2:|
A|"Am"c2A "G"d2 A|"Am"e2g ged|"C"e2c cde|"G"deB G2A|
"Am"c2A "G"d2 A|"Am"eaa age|"Am"a2g e2d|"F"cdc "G"B2A|
"Am"c2A "G"d2 A|"Am"eaa age|"C"e2 c cde|"G"d2B "Em"G2 E|
"Am"A2E "G"B2E|"F"cBA "G"BAG |"F"ABc "G"ded|"Em"eag "Am"a2|]
